X: 5402
T: Buds In Winter
R: waltz
M: 3/4
K: Gmajor
G3 B FG|E4E B|BA AG GF|FE ED EF|
G3 B FG|E4E B|BA AG FD|1 G6:|2 G2 GA Bd||
|:g4 f2|d2 de fg|c3 B AG|FA d3 e|
dcB dcB|BAG BAG|GFG AGF|1 D2 de fd:|2 G6||

